src/svg/git-merge.svg

<svg height="16" width="12" xmlns="http://www.w3.org/2000/svg" viewBox="0 0 12 16">
  <path d="M10 7c-0.73 0-1.38 0.41-1.73 1.02v-0.02c-1.05-0.02-2.27-0.36-3.13-1.02-0.75-0.58-1.5-1.61-1.89-2.44 0.45-0.36 0.75-0.92 0.75-1.55 0-1.11-0.89-2-2-2S0 1.89 0 3c0 0.73 0.41 1.38 1 1.72v6.56C0.41 11.63 0 12.27 0 13c0 1.11 0.89 2 2 2s2-0.89 2-2c0-0.73-0.41-1.38-1-1.72V7.67c0.67 0.7 1.44 1.27 2.3 1.69s2.03 0.63 2.97 0.64v-0.02c0.36 0.61 1 1.02 1.73 1.02 1.11 0 2-0.89 2-2s-0.89-2-2-2zM3.2 13c0 0.66-0.55 1.2-1.2 1.2s-1.2-0.55-1.2-1.2 0.55-1.2 1.2-1.2 1.2 0.55 1.2 1.2z m-1.2-8.8c-0.66 0-1.2-0.55-1.2-1.2s0.55-1.2 1.2-1.2 1.2 0.55 1.2 1.2-0.55 1.2-1.2 1.2z m8 6c-0.66 0-1.2-0.55-1.2-1.2s0.55-1.2 1.2-1.2 1.2 0.55 1.2 1.2-0.55 1.2-1.2 1.2z" />
</svg>

<?xml version="1.0" encoding="UTF-8" standalone="no"?>
<svg width="12px" height="16px" viewBox="0 0 12 16" version="1.1" xmlns="http://www.w3.org/2000/svg" xmlns:xlink="http://www.w3.org/1999/xlink">
    <!-- Generator: Sketch 3.7.1 (28215) - http://www.bohemiancoding.com/sketch -->
    <title>git-merge</title>
    <desc>Created with Sketch.</desc>
    <defs></defs>
    <g id="Octicons" stroke="none" stroke-width="1" fill="none" fill-rule="evenodd">
        <g id="git-merge" fill="#000000">
            <path d="M10,7 C9.27,7 8.62,7.41 8.27,8.02 L8.27,8 C7.22,7.98 6,7.64 5.14,6.98 C4.39,6.4 3.64,5.37 3.25,4.54 C3.7,4.18 4,3.62 4,2.99 C4,1.88 3.11,0.99 2,0.99 C0.89,0.99 0,1.89 0,3 C0,3.73 0.41,4.38 1,4.72 L1,11.28 C0.41,11.63 0,12.27 0,13 C0,14.11 0.89,15 2,15 C3.11,15 4,14.11 4,13 C4,12.27 3.59,11.62 3,11.28 L3,7.67 C3.67,8.37 4.44,8.94 5.3,9.36 C6.16,9.78 7.33,9.99 8.27,10 L8.27,9.98 C8.63,10.59 9.27,11 10,11 C11.11,11 12,10.11 12,9 C12,7.89 11.11,7 10,7 L10,7 Z M3.2,13 C3.2,13.66 2.65,14.2 2,14.2 C1.35,14.2 0.8,13.65 0.8,13 C0.8,12.35 1.35,11.8 2,11.8 C2.65,11.8 3.2,12.35 3.2,13 L3.2,13 Z M2,4.2 C1.34,4.2 0.8,3.65 0.8,3 C0.8,2.35 1.35,1.8 2,1.8 C2.65,1.8 3.2,2.35 3.2,3 C3.2,3.65 2.65,4.2 2,4.2 L2,4.2 Z M10,10.2 C9.34,10.2 8.8,9.65 8.8,9 C8.8,8.35 9.35,7.8 10,7.8 C10.65,7.8 11.2,8.35 11.2,9 C11.2,9.65 10.65,10.2 10,10.2 L10,10.2 Z" id="Shape"></path>
        </g>
    </g>
</svg>
